components/ui-node-icon/src/unnest/unnest.small.svg

<svg width="16" height="16" viewBox="0 0 16 16" fill="none" xmlns="http://www.w3.org/2000/svg">
  <path fill-rule="evenodd" clip-rule="evenodd" d="M2.5 5.5C2.5 4.11929 3.61929 3 5 3H6C6.27614 3 6.5 3.22386 6.5 3.5C6.5 3.77614 6.27614 4 6 4H5C4.17157 4 3.5 4.67157 3.5 5.5V6.58579C3.5 6.98361 3.34196 7.36514 3.06066 7.64645L2.20711 8.5L3.06066 9.35355C3.34196 9.63486 3.5 10.0164 3.5 10.4142V11.5C3.5 12.3284 4.17157 13 5 13H6C6.27614 13 6.5 13.2239 6.5 13.5C6.5 13.7761 6.27614 14 6 14H5C3.61929 14 2.5 12.8807 2.5 11.5V10.4142C2.5 10.2816 2.44732 10.1544 2.35355 10.0607L1.14645 8.85355C0.951184 8.65829 0.951184 8.34171 1.14645 8.14645L2.35355 6.93934C2.44732 6.84557 2.5 6.71839 2.5 6.58579V5.5ZM14.5 5.5C14.5 4.11929 13.3807 3 12 3H11C10.7239 3 10.5 3.22386 10.5 3.5C10.5 3.77614 10.7239 4 11 4H12C12.8284 4 13.5 4.67157 13.5 5.5V6.58579C13.5 6.98361 13.658 7.36514 13.9393 7.64645L14.7929 8.5L13.9393 9.35355C13.658 9.63486 13.5 10.0164 13.5 10.4142V11.5C13.5 12.3284 12.8284 13 12 13H11C10.7239 13 10.5 13.2239 10.5 13.5C10.5 13.7761 10.7239 14 11 14H12C13.3807 14 14.5 12.8807 14.5 11.5V10.4142C14.5 10.2816 14.5527 10.1544 14.6464 10.0607L15.8536 8.85355C16.0488 8.65829 16.0488 8.34171 15.8536 8.14645L14.6464 6.93934C14.5527 6.84557 14.5 6.71839 14.5 6.58579V5.5ZM9 3.5C9 3.22386 8.77614 3 8.5 3C8.22386 3 8 3.22386 8 3.5V13.5C8 13.7761 8.22386 14 8.5 14C8.77614 14 9 13.7761 9 13.5V3.5Z" fill="currentColor"/>
</svg>

<svg xmlns="http://www.w3.org/2000/svg" width="16" height="16" fill="none" viewBox="0 0 16 16">
  <path fill="currentColor" fill-rule="evenodd" d="M2.5 5.5A2.5 2.5 0 0 1 5 3h1a.5.5 0 0 1 0 1H5a1.5 1.5 0 0 0-1.5 1.5v1.086a1.5 1.5 0 0 1-.44 1.06l-.853.854.854.854a1.5 1.5 0 0 1 .439 1.06V11.5A1.5 1.5 0 0 0 5 13h1a.5.5 0 0 1 0 1H5a2.5 2.5 0 0 1-2.5-2.5v-1.086a.5.5 0 0 0-.146-.353L1.146 8.854a.5.5 0 0 1 0-.708L2.354 6.94a.5.5 0 0 0 .146-.353V5.5Zm12 0A2.5 2.5 0 0 0 12 3h-1a.5.5 0 0 0 0 1h1a1.5 1.5 0 0 1 1.5 1.5v1.086c0 .398.158.78.44 1.06l.853.854-.854.854a1.5 1.5 0 0 0-.439 1.06V11.5A1.5 1.5 0 0 1 12 13h-1a.5.5 0 0 0 0 1h1a2.5 2.5 0 0 0 2.5-2.5v-1.086a.5.5 0 0 1 .146-.353l1.208-1.207a.5.5 0 0 0 0-.708L14.646 6.94a.5.5 0 0 1-.146-.353V5.5ZM9 3.5a.5.5 0 0 0-1 0v10a.5.5 0 0 0 1 0v-10Z" clip-rule="evenodd"/>
</svg>
